X: 1
T: Homer the Roamer
C: John Hartford
R: reel
Z: 2020 John Chambers <jc:trillian.mit.edu>
S: https://www.facebook.com/groups/Fiddletuneoftheday/ 2020-09-01
S: https://www.facebook.com/groups/Fiddletuneoftheday/photos/
M: 2/4
L: 1/16
K: Amix
z2 \
| "Bm"B3c B3c | "F#m"dcBA "G"B4 \
| "G"ABAF ABd2 | "G"defg "A"efa2 |\
| "D"a2gf edde | "D"fABc "G"dcBA |\
| "G"BcBA BcdB | "D"ABAF "A"E2 :|
|: DE \
| "D"FEDF ABd2 | "D"defd "Bm"B2 (3def \
| "G"gBdg ga2f | "A"e4 f3d |\
| "Bm"Bcdc BAFG | "D"(3ABc dF EFDC \
| "G"B,CDB, A,C"D"DF | "G"GFED "A"E2 :|
|: FE \
| "D"D2F2 FEDF | "G"B,3C B,2A,2 |\
| "D"DFFE FAAF | (3ABc dc B2ef |\
| "G"gbbg "D"faaf | "G"gfed Bcde \
| "D"fdAF "G"GABc | dedB "A"A2 :|
